!!!!SEGMENT: pl-wnifc--6636-n_sieroslawski-jozef--galopada-as-dur.krn
!!!cenid: 18xx:3988
!!!COM: Sierosławski, Józef
!!!COM-rismID: pe50046932
!!!CDT: 1846-1918
!!!CNT:
!!!OTL: Galopada As-dur
!!!PDT: 1880
!!!AGN:
!!!YEC: Copyright 2022 Narodowy Instytut Fryderyka Chopina (https://polishscores.org)
!!!YEM: License CC-BY-4.0 (https://creativecommons.org/licenses/by/4.0)
!!!SMS-siglum: PL-Wnifc
!!!SMS-shelfmark: 6636/n
!!!SMS-shelfwork: W
!!!SMS-variant:
!!!SMS-altvar:
!!!NIFC-rismSourceID: 1001148945
!!!NIFC-rismChildID: 1001148945
!!!NIFC-islandoraID: nifc:212932
!!!URL-pdf-islandora: https://repozytorium.nifc.pl/islandora/object/nifc%3A212932/datastream/PDF/view
!!!URL-scan: https://polish.musicsources.pl/pl/lokalizacje/galeria/druki-muzyczne/16873 @EN{Scan on Polish Music Sources Website} @PL{Skany w portalu Dziedzictwo Muzyki Polskiej w otwartym dostępie}
!!!IIIF:
!!!ONB-nifc:
!!!AIN: 2 piano
!!!key: A-
**kern	**kern	**dynam
*part2	*part1	*
*staff2	*staff1	*
*I"Piano.	*I"Piano.	*
*I'pf	*I'pf	*
*ICklav	*ICklav	*
*Ipiano	*Ipiano	*
*>[A,A1,A,A2,B,B1,B,B2,C,C1,C,C2,D,D1,D,D2,E]	*>[A,A1,A,A2,B,B1,B,B2,C,C1,C,C2,D,D1,D,D2,E]	*>[A,A1,A,A2,B,B1,B,B2,C,C1,C,C2,D,D1,D,D2,E]
*>A	*>A	*>A
*clefF4	*clefG2	*
*k[b-e-a-d-]	*k[b-e-a-d-]	*
*A-:	*A-:	*
*M2/4	*M2/4	*
=1	=1	=1
.	(8qcc/	fp
8AA-\L	8eee-'^^\)	.
8E-\ 8A- 8c	8r	.
8E-\ 8A- 8c	(16eee-\LL	.
.	16dddn\	.
8E-\J 8A- 8c	16fff\	.
.	16eee-\JJ)	.
=2	=2	=2
8AA-\L	8ccc'\	.
8E-\J 8A- 8c	8r	.
8C\L	8aa-'\	.
8E-\J 8A- 8c	8r	.
=3	=3	=3
8D-\L	8gg'\	.
8B-\ 8d- 8f	8r	.
8B-\ 8d- 8f	8ff'\	.
8B-\J 8d- 8f	8r	.
=4	=4	=4
8D-\L	4.b-^\	.
8B-\ 8d- 8f	.	.
8B-\ 8d- 8f	.	.
8B-\J 8d- 8f	8r	.
=5	=5	=5
8E-\L	8ee-'\	.
8d-\ 8e- 8g	8r	.
8d-\ 8e- 8g	(16ee-\LL	.
.	16ddn\	.
8d-\J 8e- 8g	16ff\	.
.	16ee-\JJ)	.
=6	=6	=6
8E-\L	8dd-'\	.
8d-\ 8e-	8r	.
8d-\ 8e-	8f'/L	.
8d-\J 8e-	8g'/J	.
!!LO:LB:g=original	!	!
=7	=7	=7
8AA-\L	4a-/	.
8E-\ 8A- 8c	.	.
.	(8qb-/	<
8E-\ 8A- 8c	(<16a-/LL)	.
.	16g/	.
8E-\J 8A- 8c	16a-/	.
.	16cc/JJ)	[[
=8	=8	=8
8AA-\L	4.ee-\	>
8E-\ 8A- 8c	.	.
8E-\ 8A- 8c	.	.
8E-\J 8A- 8c	8r	]]
=9	=9	=9
.	(8qcc/	.
8AA-\L	8eee-'^^\)	.
8E-\ 8A- 8c	8r	.
8E-\ 8A- 8c	(16eee-\LL	.
.	16dddn\	.
8E-\J 8A- 8c	16fff\	.
.	16eee-\JJ)	.
=10	=10	=10
8AA-\L	8ccc'\	.
8E-\J 8A- 8c	8r	.
8C\L	8aa-'\	.
8E-\J 8A- 8c	8r	.
=11	=11	=11
8D-\L	8gg'\	.
8B-\ 8d- 8f	8r	.
8B-\ 8d- 8f	8ff'\	.
8B-\J 8d- 8f	8r	.
=12	=12	=12
8D-\L	4.b-^\	.
8B-\ 8d- 8f	.	.
8B-\ 8d- 8f	.	.
8B-\J 8d- 8f	8r	.
=13	=13	=13
8E-\L	8ee-'\	.
8d-\ 8e- 8g	8r	.
8d-\ 8e- 8g	(16ee-\LL	.
.	16ddn\	.
8d-\J 8e- 8g	16ff\	.
.	16ee-\JJ)	.
!!LO:LB:g=original	!	!
=14	=14	=14
8E-\L	8dd-'\	.
8d-\ 8e-	8r	.
8d-\ 8e-	8f'/L	.
8d-\J 8e-	8g'/J	.
=15	=15	=15
8A-\L	8a-/L	.
8c\ 8e-	8a-M</J	.
8c\ 8e-	16g\LL	<
.	16a-\	.
8c\J 8e-	16cc\	.
.	16ee-\JJ	[[
=16	=16	=16
*>A1	*>A1	*>A1
8A-\ 8c 8e-	8aa-\	f
8r	8r	.
4r	8.ee-\L	.
.	16ee-\Jk	.
=17:|!	=17:|!	=17:|!
*>A2	*>A2	*>A2
8A-\ 8c 8e-	8aa-\	.
8r	8r	.
4r	8.cc\L 8.ccc	.
.	16cc\Jk 16ccc	.
=18!|:	=18!|:	=18!|:
*>B	*>B	*>B
8En\L	4cc\ 4ccc	mf
8G\ 8B- 8c	.	.
8G\ 8B- 8c	(8dd-\L 8ddd-	.
8G\J 8B- 8c	8cc\J) 8ccc	.
=19	=19	=19
*	*8va	*
8C\L	4ddd-'\ 4dddd-	.
8G\ 8B- 8c	.	.
8G\ 8B- 8c	4ccc'\ 4cccc	.
8G\J 8B- 8c	.	.
=20	=20	=20
8F\L	4bb-'\ 4bbb-	.
8A-\ 8c 8f	.	.
8A-\ 8c 8f	4aa-'\ 4aaa-	.
8A-\J 8c 8f	.	.
*	*X8va	*
!!LO:LB:g=original	!	!
=21	=21	=21
8C\L	8r	.
8A-\ 8c 8f	(8cc\L 8ccc	.
8A-\ 8c 8f	8bn\ 8bbn	.
8A-\J 8c 8f	8cc\J) 8ccc	.
=22	=22	=22
8En\L	4dd-'\ 4ddd-	.
8G\ 8B- 8c	.	.
8G\ 8B- 8c	4cc'\ 4ccc	.
8G\J 8B- 8c	.	.
=23	=23	=23
8C\L	4b-'\ 4bb-	.
8G\ 8B- 8c	.	.
8G\ 8B- 8c	4a-'\ 4aa-	.
8G\J 8B- 8c	.	.
=24	=24	=24
8F\L	4g'\ 4gg	.
8A-\ 8c	.	.
8A-\ 8c	4f'\ 4ff	.
8A-\J 8c	.	.
=25	=25	=25
8F\ 8A- 8c	8r	.
*	*8va	*
8r	(8ff\L 8fff	.
4r	8een\ 8eeen	.
.	8ff\J) 8fff	.
=26	=26	=26
8DD-\L 8D-	4bb-^\ 4bbb-	f
8A-\ 8d- 8f	.	.
8A-\ 8d- 8f	4aa-^\ 4aaa-	.
8A-\J 8d- 8f	.	.
=27	=27	=27
8D-\L	4gg^\ 4ggg	.
8A-\ 8d- 8f	.	.
8A-\ 8d- 8f	4ff^\ 4fff	.
8A-\J 8d- 8f	.	.
!!LO:LB:g=original	!	!
=28	=28	=28
8E-\L	4ff^\ 4fff	.
8A-\ 8c 8e-	.	.
8A-\ 8c 8e-	8ee-^/ 8eee-	.
*	*X8va	*
8A-\J 8c 8e-	8r	.
=29	=29	=29
8E-\ 8A- 8c 8e-	8r	.
8r	(8cc\L 8ccc	.
4r	8bn\ 8bbn	.
.	8cc\J) 8ccc	.
=30	=30	=30
8EE-\L 8E-	4ff^\ 4fff	p
8d-\ 8e- 8g	.	.
8d-\ 8e- 8g	4ee-^\ 4eee-	.
8d-\J 8e- 8g	.	.
=31	=31	=31
8E-\L	4dd-\ 4ddd-	.
8B-\ 8d- 8e-	.	.
8B-\ 8d- 8e-	8f\L 8ff	.
8B-\J 8d- 8e-	8g\J 8gg	.
=32	=32	=32
8AA-\L	8a-\L 8aa-	.
8E-\ 8A- 8c	(16bb-\L	.
.	16aa-\JJ)	.
8E-\ 8A- 8c	(16gg\LL	.
.	16aa-\	.
8E-\J 8A- 8c	16ccc\	.
.	16eee-\JJ)	.
!LO:TX:b:t=[coda]	!LO:TX:t=[coda]	!
=33	=33	=33
*>B1	*>B1	*>B1
8E-\ 8A- 8c	8aaa-'\	f
8r	8r	.
4r	8.cc\L 8.ccc	.
.	16cc\Jk 16ccc	.
=34:|!	=34:|!	=34:|!
*>B2	*>B2	*>B2
8E-\ 8A- 8c	8aaa-'\	f
8r	8r	.
4r	8.a-/L	.
.	16a-/Jk	.
!!LO:PB:g=original	!	!
==35	==35	==35
*>C	*>C	*>C
*k[b-e-a-d-g-]	*k[b-e-a-d-g-]	*
*M2/4	*M2/4	*
!	!LO:TX:B:a:t=Trio.	!
8D-'\L	4a-/	p
8d-\	.	.
8A-\ 8f	(8.ff\L	.
8d-\J	.	.
.	16gg-\Jk)	.
=36	=36	=36
8E-'\L	4ff\	.
8c\	.	.
8A-\ 8g-	(8ddn\L	.
8c\J	8ee-\J)	.
=37	=37	=37
8AA-'\L	4bb-\	.
8c\	.	.
8A-\ 8g-	(8.b-\L	.
8c\J	.	.
.	16cc\Jk)	.
=38	=38	=38
*	*^	*
8D-\L	(8b-/L	4en\	<
8B-\	8gn/J)	.	.
8F\ 8d-	4a-/	4f\	[ >
8A-\J	.	.	]
*	*v	*v	*
!!LO:LB:g=original	!	!
=39	=39	=39
8D-\L	4f/ 4a-	.
8d-\	.	.
8A-\ 8f	(8ff\L	.
8d-\J	8ggn\J)	.
=40	=40	=40
8C\L	4a-\ 4aa-	.
8c\	.	.
8A-\ 8f	(8ff\L	.
8c\J	8aa-\J)	.
=41	=41	=41
8C\L	4cc\ 4ccc	.
8c\	.	.
8B-\ 8en	8gg-'\L	.
8c\J	(16bb-\L	.
.	16aa-\JJ)	.
=42	=42	=42
*>C1	*>C1	*>C1
8F\ 8A- 8c 8f	8ff'\	.
8r	8r	.
4E-:\ 4A-: 4c: 4g-:	4a-^^\ 4cc 4ee- 4aa-	f
=43:|!	=43:|!	=43:|!
*>C2	*>C2	*>C2
8F\ 8A- 8c 8f	8ff\L	<
8r	16aa-'\L	.
.	16aa-'\JJ	.
4r	8aa-'\L	.
.	8aa-'\J	[
=44!|:	=44!|:	=44!|:
*>D	*>D	*>D
4D-'\ 4F 4A- 4d-	4ff'\ 4aa- 4ddd- 4fff	.
4D-'\ 4F 4A- 4e-	4ff'\ 4aa- 4eee-	.
=45	=45	=45
4D-\ 4A- 4f 4a-	4ff'\ 4aa- 4ddd-	.
4D-':\ 4A-: 4d-: 4f: 4a-:	4dd-'\ 4ff 4ccc	.
=46	=46	=46
8E-\L	8cc\L 8gg- 8bb-	.
8A-\ 8e- 8g-	16cc'\L	p
.	16cc'\JJ	.
8A-\ 8e- 8g-	8cc\L	.
8A-\J 8e- 8g-	8ee-\J	.
=47	=47	=47
8E-\L	4gg-\	.
8A-\ 8e- 8g-	.	.
8A-\ 8e- 8g-	(8.b-\L 8.bb-	.
8A-\J 8e- 8g-	.	.
.	16an\Jk) 16aan	.
=48	=48	=48
4AA-'\ 4E- 4A-	4cc'\ 4aa- 4ccc	f
4AA-'\ 4E- 4B-	4b-'\ 4gg- 4bb-	.
=49	=49	=49
4AA-'\ 4E- 4c	4b-'\ 4gg- 4bb-	.
4AA-'\ 4E- 4A- 4c 4e-	4cc'\	.
!!LO:LB:g=original	!	!
=50	=50	=50
8D-\L 8d-	8b-^\L 8gg- 8bb-	.
8F\ 8A- 8d-	16aa-\L	.
.	16aa-\JJ	.
8F\ 8A- 8d-	8aa-\L	.
8F\J 8A- 8d-	8ggn\J	.
=51	=51	=51
8AA-\L	[4a-\ [4aa-	.
8F\ 8A- 8d-	.	.
8F\ 8A- 8d-	16a-\LL] 16aa-]	<
.	(16ff\	.
8F\J 8A- 8d-	16aa-\	.
.	16ddd-\JJ)	[[
=52	=52	=52
4D-\ 4A- 4d-	4ff'\ 4aa- 4fff	ff
4D-\ 4A- 4e-	4ff'\ 4aa- 4eee-	.
=53	=53	=53
4D-\ 4A- 4f	4ff'\ 4aa- 4ddd-	.
4F:\ 4B-: 4c-X: 4f:	4dd-'\ 4ff 4ddd-	.
=54	=54	=54
8G-\L	4.ee-^\ 4.eee-	.
8B-\ 8d- 8g-	.	.
8B-\J 8d- 8g-	.	.
8r	16ddd-'\LL	.
.	16ddd-'\JJ	.
=55	=55	=55
8G-/L	4.een^\ 4.eeen	.
*clefG2	*	*
8d-/ 8en 8b-	.	.
8d-/J 8e 8b-	.	.
8r	16ddd-'\LL	.
.	16ddd-'\JJ	.
*clefF4	*	*
!!LO:LB:g=original	!	!
=56	=56	=56
8AA-\L	4.ff^\ 4.fff	.
8A-\ 8d- 8f	.	.
8A-\J 8d- 8f	.	.
8r	(16ggn\LL	.
.	16aa-\JJ)	.
=57	=57	=57
8AA-\L	4.dd-^\ 4.ddd-	.
8A-\ 8d- 8f	.	.
8A-\J 8d- 8f	.	.
8r	(16een\LL	.
.	16ff\JJ)	.
=58	=58	=58
4AA-\ 4E- 4c	4cc'^\ 4gg- 4bb-	.
4AA-\ 4E- 4A- 4e-	4cc'^\ 4gg- 4aa-	.
=59	=59	=59
*>D1	*>D1	*>D1
8D-\ 8F 8A- 8d-	8f\L 8a- 8dd-	.
8r	16aa-'\L	.
.	16aa-'\JJ	.
4r	8aa-'\L	.
.	8aa-'\J	.
=60:|!	=60:|!	=60:|!
*>D2	*>D2	*>D2
8D-\ 8F 8d-	8f/ 8a- 8dd-	.
8r	8r	.
!LO:TX:b:i:t=Galopada da capo al\ne poi Coda.	!	!
4r	8.ee-\L	.
.	16ee-\Jk	.
!LO:TX:b:t=[coda]	!	!
==61	==61	==61
*>E	*>E	*>E
!	!LO:TX:a:B:t=Coda.	!
!LO:TX:b:t=[coda]	!LO:TX:t=[coda]	!
8E-'\ 8A- 8c	8aaa-'\	f
8r	8r	.
8AA-'\ 8C 8E- 8A-	8cc'\ 8ee- 8aa- 8ccc	f
8r	8r	.
=62	=62	=62
4.AA-'\ 4.C 4.E- 4.A-	4.a-'\ 4.cc 4.ee- 4.aa-	ff
8r	8r	.
==	==	==
*-	*-	*-
!!!system-decoration: {(s1,s2)}
!!!RDF**kern: > = above
!!!RDF**kern: < = below
!!!ENC: Filip Voros
!!!END: 2022-07-31
!!!ENC: Jan Barakat
!!!END: 2022-09-07
